cctv-off.svg

<svg fill="currentColor" viewBox="0 0 24 24"><path d="M20.84 22.73 18.11 20H17c-1.1 0-2-.9-2-2v-1.11l-2.34-2.34-.85.49c-.95.55-2.18.22-2.73-.73l-1.5-2.6c-.4-.71-.33-1.53.1-2.14L1.11 3l1.28-1.27 19.72 19.73zM18.5 13c0-.57-.2-1.1-.53-1.5l1.97-1.15c1.01-.59 1.36-1.88.77-2.89l-1.38-2.4a2.125 2.125 0 0 0-2.89-.78l-5.67 3.29 7.09 7.09c.4-.44.64-1.02.64-1.66M2 12.62l3.5 6.06 2.53-3.18-2-3.47z"/></svg>

<svg  viewBox="0 0 24 24" fill="currentColor"><path  d="M20.84 22.73L18.11 20H17C15.9 20 15 19.1 15 18V16.89L12.66 14.55L11.81 15.04C10.86 15.59 9.63 15.26 9.08 14.31L7.58 11.71C7.18 11 7.25 10.18 7.68 9.57L1.11 3L2.39 1.73L22.11 21.46L20.84 22.73M18.5 13C18.5 12.43 18.3 11.9 17.97 11.5L19.94 10.35C20.95 9.76 21.3 8.47 20.71 7.46L19.33 5.06C18.74 4.05 17.45 3.7 16.44 4.28L10.77 7.57L17.86 14.66C18.26 14.22 18.5 13.64 18.5 13M2 12.62L5.5 18.68L8.03 15.5L6.03 12.03L2 12.62Z"/></svg>
